icons/tiktok.svg

<svg width="24" height="24" viewBox="0 0 24 24" fill="none" xmlns="http://www.w3.org/2000/svg">
<path fill-rule="evenodd" clip-rule="evenodd" d="M14.2308 2C14.7831 2 15.2308 2.44772 15.2308 3C15.2308 4.21834 15.7269 5.39206 16.6186 6.26148C17.5112 7.13173 18.7271 7.625 20 7.625C20.5523 7.625 21 8.07271 21 8.625C21 9.17728 20.5523 9.625 20 9.625C18.2166 9.625 16.5013 8.93602 15.2308 7.70158V16.5C15.2308 17.5935 14.8981 18.6603 14.2778 19.5654C13.6578 20.4701 12.7792 21.1715 11.7561 21.5847C10.7332 21.9978 9.60893 22.1055 8.52458 21.8952C7.44012 21.6849 6.4406 21.1652 5.65372 20.398C4.86656 19.6305 4.32753 18.6496 4.10887 17.5778C3.89018 16.5058 4.00266 15.395 4.43094 14.3869C4.8591 13.3791 5.58238 12.5218 6.50536 11.9205C7.42808 11.3194 8.51032 11 9.61539 11C10.1677 11 10.6154 11.4477 10.6154 12C10.6154 12.5523 10.1677 13 9.61539 13C8.89478 13 8.19235 13.2085 7.59707 13.5963C7.00207 13.9839 6.54221 14.5322 6.27171 15.1689C6.00134 15.8054 5.93103 16.5041 6.0685 17.178C6.20602 17.8521 6.54613 18.4748 7.04992 18.966C7.55398 19.4574 8.19923 19.7949 8.90536 19.9318C9.61161 20.0688 10.3434 19.9983 11.0071 19.7302C11.6707 19.4622 12.2338 19.0101 12.6281 18.4348C13.0221 17.8598 13.2308 17.1865 13.2308 16.5V3C13.2308 2.44772 13.6785 2 14.2308 2Z" fill="black"/>
</svg>

<svg
  width="24"
  height="24"
  viewBox="0 0 24 24"
  xmlns="http://www.w3.org/2000/svg"
>
  <path
    fill-rule="evenodd"
    clip-rule="evenodd"
    d="M14.23 2a1 1 0 0 1 1 1c0 1.218.497 2.392 1.389 3.261A4.845 4.845 0 0 0 20 7.625a1 1 0 1 1 0 2 6.845 6.845 0 0 1-4.77-1.923V16.5a5.42 5.42 0 0 1-.952 3.065 5.592 5.592 0 0 1-2.522 2.02 5.726 5.726 0 0 1-3.231.31 5.653 5.653 0 0 1-2.871-1.497 5.466 5.466 0 0 1-1.545-2.82 5.396 5.396 0 0 1 .322-3.191 5.527 5.527 0 0 1 2.074-2.466A5.7 5.7 0 0 1 9.615 11a1 1 0 1 1 0 2 3.7 3.7 0 0 0-2.018.596 3.526 3.526 0 0 0-1.325 1.573 3.396 3.396 0 0 0-.204 2.009c.138.674.478 1.297.982 1.788.504.491 1.15.829 1.855.966a3.725 3.725 0 0 0 2.102-.202 3.593 3.593 0 0 0 1.621-1.295 3.42 3.42 0 0 0 .603-1.935V3a1 1 0 0 1 1-1z"
  />
</svg>
